symbols/web/12mp/materialsymbolsrounded/12mp_24px.svg

<svg xmlns="http://www.w3.org/2000/svg" height="24" width="24"><path d="M9.25 11.5q.325 0 .538-.213.212-.212.212-.537V5.5H7.725q-.3 0-.512.213Q7 5.925 7 6.25q0 .325.213.537Q7.425 7 7.75 7h.75v3.775q0 .3.213.512.212.213.537.213Zm3.75 0h2.775q.3 0 .513-.213.212-.212.212-.537 0-.325-.212-.538Q16.075 10 15.75 10H13.5V9h2q.425 0 .712-.288.288-.287.288-.712V6.5q0-.425-.288-.713-.287-.287-.712-.287h-2.775q-.3 0-.512.213Q12 5.925 12 6.25q0 .325.213.537.212.213.537.213H15v1h-2q-.425 0-.712.287Q12 8.575 12 9v1.5q0 .425.288.712.287.288.712.288ZM5 21q-.825 0-1.413-.587Q3 19.825 3 19V5q0-.825.587-1.413Q4.175 3 5 3h14q.825 0 1.413.587Q21 4.175 21 5v14q0 .825-.587 1.413Q19.825 21 19 21Zm0-2h14V5H5v14Zm1.75-.5q.325 0 .537-.212.213-.213.213-.538V14h1v2.275q0 .3.213.513.212.212.537.212.325 0 .538-.212.212-.213.212-.538V14h1v3.775q0 .3.213.513.212.212.537.212.325 0 .538-.212.212-.213.212-.538V13.5q0-.425-.287-.713-.288-.287-.713-.287H7q-.425 0-.713.287Q6 13.075 6 13.5v4.275q0 .3.213.513.212.212.537.212Zm7.5 0q.325 0 .538-.212.212-.213.212-.538V17h2q.425 0 .712-.288Q18 16.425 18 16v-2.5q0-.425-.288-.713-.287-.287-.712-.287h-2.5q-.425 0-.712.287-.288.288-.288.713v4.275q0 .3.213.513.212.212.537.212ZM15 14h1.5v1.5H15ZM5 5v14Z"/></svg>

<svg xmlns="http://www.w3.org/2000/svg" height="24" width="24"><path d="M9.25 11.5Q9.575 11.5 9.788 11.287Q10 11.075 10 10.75V5.5H7.725Q7.425 5.5 7.213 5.713Q7 5.925 7 6.25Q7 6.575 7.213 6.787Q7.425 7 7.75 7H8.5V10.775Q8.5 11.075 8.713 11.287Q8.925 11.5 9.25 11.5ZM13 11.5H15.775Q16.075 11.5 16.288 11.287Q16.5 11.075 16.5 10.75Q16.5 10.425 16.288 10.212Q16.075 10 15.75 10H13.5V9H15.5Q15.925 9 16.212 8.712Q16.5 8.425 16.5 8V6.5Q16.5 6.075 16.212 5.787Q15.925 5.5 15.5 5.5H12.725Q12.425 5.5 12.213 5.713Q12 5.925 12 6.25Q12 6.575 12.213 6.787Q12.425 7 12.75 7H15V8H13Q12.575 8 12.288 8.287Q12 8.575 12 9V10.5Q12 10.925 12.288 11.212Q12.575 11.5 13 11.5ZM5 21Q4.175 21 3.587 20.413Q3 19.825 3 19V5Q3 4.175 3.587 3.587Q4.175 3 5 3H19Q19.825 3 20.413 3.587Q21 4.175 21 5V19Q21 19.825 20.413 20.413Q19.825 21 19 21ZM5 19H19Q19 19 19 19Q19 19 19 19V5Q19 5 19 5Q19 5 19 5H5Q5 5 5 5Q5 5 5 5V19Q5 19 5 19Q5 19 5 19ZM6.75 18.5Q7.075 18.5 7.287 18.288Q7.5 18.075 7.5 17.75V14H8.5V16.275Q8.5 16.575 8.713 16.788Q8.925 17 9.25 17Q9.575 17 9.788 16.788Q10 16.575 10 16.25V14H11V17.775Q11 18.075 11.213 18.288Q11.425 18.5 11.75 18.5Q12.075 18.5 12.288 18.288Q12.5 18.075 12.5 17.75V13.5Q12.5 13.075 12.213 12.787Q11.925 12.5 11.5 12.5H7Q6.575 12.5 6.287 12.787Q6 13.075 6 13.5V17.775Q6 18.075 6.213 18.288Q6.425 18.5 6.75 18.5ZM14.25 18.5Q14.575 18.5 14.788 18.288Q15 18.075 15 17.75V17H17Q17.425 17 17.712 16.712Q18 16.425 18 16V13.5Q18 13.075 17.712 12.787Q17.425 12.5 17 12.5H14.5Q14.075 12.5 13.788 12.787Q13.5 13.075 13.5 13.5V17.775Q13.5 18.075 13.713 18.288Q13.925 18.5 14.25 18.5ZM15 14H16.5V15.5H15ZM5 5Q5 5 5 5Q5 5 5 5Q5 5 5 5Q5 5 5 5V19Q5 19 5 19Q5 19 5 19Q5 19 5 19Q5 19 5 19Z"/></svg>
